img/ATM-display.svg

<svg width="40" height="40" viewBox="0 0 40 40" fill="none" xmlns="http://www.w3.org/2000/svg">
<path d="M39.9899 2.60804C39.9899 39.6769 40.0594 37.66 39.8334 38.2512C39.6541 38.7585 39.3222 39.1979 38.8833 39.5092C38.4444 39.8205 37.9199 39.9884 37.3819 39.9899H2.60804C1.91634 39.9899 1.25298 39.7151 0.763876 39.226C0.274774 38.7369 0 38.0736 0 37.3819V2.60804C0 1.91634 0.274774 1.25298 0.763876 0.763876C1.25298 0.274774 1.91634 0 2.60804 0H37.3819C38.0736 0 38.7369 0.274774 39.226 0.763876C39.7151 1.25298 39.9899 1.91634 39.9899 2.60804Z" fill="#719E35"/>
<path d="M39.9898 2.60804C39.9898 39.6769 40.0594 37.66 39.8334 38.2512H14.7788C11.5509 38.2512 8.45522 36.9689 6.17275 34.6864C3.89027 32.404 2.60799 29.3083 2.60799 26.0804C2.60799 -1.44311 2.53845 0.573768 2.76448 0H37.3818C38.0735 0 38.7369 0.274774 39.226 0.763876C39.7151 1.25298 39.9898 1.91634 39.9898 2.60804Z" fill="#8DC641"/>
<path d="M32.1657 4.34668H7.82406C7.34393 4.34668 6.95471 4.7359 6.95471 5.21603V20.8642C6.95471 21.3444 7.34393 21.7336 7.82406 21.7336H32.1657C32.6459 21.7336 33.0351 21.3444 33.0351 20.8642V5.21603C33.0351 4.7359 32.6459 4.34668 32.1657 4.34668Z" fill="#C8C8C8"/>
<path d="M33.0352 5.21603V19.9949H25.2111C21.0644 19.9834 17.0909 18.3311 14.1588 15.399C11.2267 12.4668 9.57434 8.49332 9.56287 4.34668H32.1658C32.3964 4.34668 32.6175 4.43827 32.7806 4.60131C32.9436 4.76434 33.0352 4.98546 33.0352 5.21603Z" fill="#D7D7D7"/>
<path d="M4.34681 19.9949H2.60812C2.37755 19.9949 2.15643 19.9033 1.99339 19.7403C1.83036 19.5773 1.73877 19.3562 1.73877 19.1256C1.73877 18.895 1.83036 18.6739 1.99339 18.5109C2.15643 18.3478 2.37755 18.2562 2.60812 18.2562H4.34681C4.57737 18.2562 4.79849 18.3478 4.96153 18.5109C5.12456 18.6739 5.21615 18.895 5.21615 19.1256C5.21615 19.3562 5.12456 19.5773 4.96153 19.7403C4.79849 19.9033 4.57737 19.9949 4.34681 19.9949ZM4.34681 16.5176H2.60812C2.37755 16.5176 2.15643 16.426 1.99339 16.2629C1.83036 16.0999 1.73877 15.8788 1.73877 15.6482C1.73877 15.4176 1.83036 15.1965 1.99339 15.0335C2.15643 14.8705 2.37755 14.7789 2.60812 14.7789H4.34681C4.57737 14.7789 4.79849 14.8705 4.96153 15.0335C5.12456 15.1965 5.21615 15.4176 5.21615 15.6482C5.21615 15.8788 5.12456 16.0999 4.96153 16.2629C4.79849 16.426 4.57737 16.5176 4.34681 16.5176ZM4.34681 13.0402H2.60812C2.37755 13.0402 2.15643 12.9486 1.99339 12.7855C1.83036 12.6225 1.73877 12.4014 1.73877 12.1708C1.73877 11.9403 1.83036 11.7191 1.99339 11.5561C2.15643 11.3931 2.37755 11.3015 2.60812 11.3015H4.34681C4.57737 11.3015 4.79849 11.3931 4.96153 11.5561C5.12456 11.7191 5.21615 11.9403 5.21615 12.1708C5.21615 12.4014 5.12456 12.6225 4.96153 12.7855C4.79849 12.9486 4.57737 13.0402 4.34681 13.0402ZM4.34681 9.56279H2.60812C2.37755 9.56279 2.15643 9.4712 1.99339 9.30816C1.83036 9.14513 1.73877 8.92401 1.73877 8.69344C1.73877 8.46288 1.83036 8.24176 1.99339 8.07872C2.15643 7.91569 2.37755 7.8241 2.60812 7.8241H4.34681C4.57737 7.8241 4.79849 7.91569 4.96153 8.07872C5.12456 8.24176 5.21615 8.46288 5.21615 8.69344C5.21615 8.92401 5.12456 9.14513 4.96153 9.30816C4.79849 9.4712 4.57737 9.56279 4.34681 9.56279ZM37.3819 19.9949H35.6432C35.4127 19.9949 35.1916 19.9033 35.0285 19.7403C34.8655 19.5773 34.7739 19.3562 34.7739 19.1256C34.7739 18.895 34.8655 18.6739 35.0285 18.5109C35.1916 18.3478 35.4127 18.2562 35.6432 18.2562H37.3819C37.6125 18.2562 37.8336 18.3478 37.9967 18.5109C38.1597 18.6739 38.2513 18.895 38.2513 19.1256C38.2513 19.3562 38.1597 19.5773 37.9967 19.7403C37.8336 19.9033 37.6125 19.9949 37.3819 19.9949ZM37.3819 16.5176H35.6432C35.4127 16.5176 35.1916 16.426 35.0285 16.2629C34.8655 16.0999 34.7739 15.8788 34.7739 15.6482C34.7739 15.4176 34.8655 15.1965 35.0285 15.0335C35.1916 14.8705 35.4127 14.7789 35.6432 14.7789H37.3819C37.6125 14.7789 37.8336 14.8705 37.9967 15.0335C38.1597 15.1965 38.2513 15.4176 38.2513 15.6482C38.2513 15.8788 38.1597 16.0999 37.9967 16.2629C37.8336 16.426 37.6125 16.5176 37.3819 16.5176ZM37.3819 13.0402H35.6432C35.4127 13.0402 35.1916 12.9486 35.0285 12.7855C34.8655 12.6225 34.7739 12.4014 34.7739 12.1708C34.7739 11.9403 34.8655 11.7191 35.0285 11.5561C35.1916 11.3931 35.4127 11.3015 35.6432 11.3015H37.3819C37.6125 11.3015 37.8336 11.3931 37.9967 11.5561C38.1597 11.7191 38.2513 11.9403 38.2513 12.1708C38.2513 12.4014 38.1597 12.6225 37.9967 12.7855C37.8336 12.9486 37.6125 13.0402 37.3819 13.0402ZM37.3819 9.56279H35.6432C35.4127 9.56279 35.1916 9.4712 35.0285 9.30816C34.8655 9.14513 34.7739 8.92401 34.7739 8.69344C34.7739 8.46288 34.8655 8.24176 35.0285 8.07872C35.1916 7.91569 35.4127 7.8241 35.6432 7.8241H37.3819C37.6125 7.8241 37.8336 7.91569 37.9967 8.07872C38.1597 8.24176 38.2513 8.46288 38.2513 8.69344C38.2513 8.92401 38.1597 9.14513 37.9967 9.30816C37.8336 9.4712 37.6125 9.56279 37.3819 9.56279Z" fill="#3A3A3A"/>
<path d="M21.7336 26.0803H25.211V29.5577H21.7336V26.0803ZM32.1658 26.0803H35.6432V29.5577H32.1658V26.0803Z" fill="#719E35"/>
<path d="M4.34668 26.0803H18.2562V36.5125H4.34668V26.0803Z" fill="#9A9A9A"/>
<path d="M18.2562 26.0803V34.7738H15.6482C13.3425 34.7738 11.1313 33.8579 9.50097 32.2275C7.87063 30.5972 6.95471 28.386 6.95471 26.0803H18.2562Z" fill="#CDCDCD"/>
<path d="M25.2111 26.0803H32.1658V36.5125H25.2111V26.0803Z" fill="#2C435E"/>
<path d="M32.1658 26.0803C32.1658 35.3041 32.0789 34.7738 32.1658 34.7738C31.595 34.7738 31.0298 34.6613 30.5024 34.4429C29.975 34.2245 29.4958 33.9043 29.0922 33.5007C28.6886 33.097 28.3684 32.6178 28.15 32.0905C27.9315 31.5631 27.8191 30.9979 27.8191 30.4271V26.0803H32.1658Z" fill="#425B72"/>
<path d="M7.82406 32.1658C7.59349 32.1658 7.37237 32.0742 7.20934 31.9112C7.0463 31.7482 6.95471 31.527 6.95471 31.2965C6.95471 31.1245 7.0057 30.9565 7.10122 30.8135C7.19675 30.6705 7.33252 30.5591 7.49137 30.4933C7.65023 30.4275 7.82502 30.4103 7.99366 30.4438C8.16229 30.4774 8.3172 30.5602 8.43878 30.6818C8.56036 30.8033 8.64315 30.9582 8.6767 31.1269C8.71024 31.2955 8.69303 31.4703 8.62723 31.6292C8.56143 31.788 8.45 31.9238 8.30704 32.0193C8.16408 32.1148 7.996 32.1658 7.82406 32.1658ZM11.3014 32.1658C11.1585 32.1664 11.0176 32.1318 10.8912 32.0649C10.7648 31.998 10.6569 31.901 10.577 31.7825C10.4971 31.6639 10.4476 31.5275 10.433 31.3853C10.4184 31.2431 10.4391 31.0994 10.4932 30.9671C10.5474 30.8348 10.6334 30.7179 10.7435 30.6268C10.8536 30.5356 10.9846 30.473 11.1247 30.4445C11.2648 30.4161 11.4097 30.4226 11.5467 30.4635C11.6837 30.5045 11.8085 30.5786 11.91 30.6792C12.0321 30.8003 12.1155 30.9549 12.1497 31.1234C12.184 31.2918 12.1675 31.4667 12.1023 31.6258C12.0372 31.7849 11.9263 31.9212 11.7838 32.0173C11.6412 32.1134 11.4734 32.1651 11.3014 32.1658ZM14.7788 32.1658C14.6069 32.1658 14.4388 32.1148 14.2958 32.0193C14.1529 31.9238 14.0414 31.788 13.9757 31.6292C13.9099 31.4703 13.8926 31.2955 13.9262 31.1269C13.9597 30.9582 14.0425 30.8033 14.1641 30.6818C14.2857 30.5602 14.4406 30.4774 14.6092 30.4438C14.7779 30.4103 14.9527 30.4275 15.1115 30.4933C15.2704 30.5591 15.4061 30.6705 15.5017 30.8135C15.5972 30.9565 15.6482 31.1245 15.6482 31.2965C15.6482 31.527 15.5566 31.7482 15.3935 31.9112C15.2305 32.0742 15.0094 32.1658 14.7788 32.1658ZM7.82406 34.7739C7.68146 34.773 7.54126 34.7371 7.4158 34.6693C7.29035 34.6015 7.1835 34.5039 7.10467 34.3851C7.02585 34.2663 6.97746 34.1299 6.96378 33.9879C6.9501 33.846 6.97154 33.7029 7.02622 33.5712C7.08091 33.4395 7.16714 33.3232 7.27734 33.2327C7.38753 33.1422 7.5183 33.0802 7.65811 33.0522C7.79793 33.0241 7.94249 33.0309 8.07907 33.0719C8.21565 33.1129 8.34004 33.1869 8.44129 33.2873C8.5639 33.4089 8.64751 33.5642 8.68148 33.7335C8.71544 33.9028 8.69822 34.0784 8.632 34.2379C8.56579 34.3974 8.45358 34.5335 8.30968 34.629C8.16579 34.7244 7.99673 34.7749 7.82406 34.7739ZM11.3014 34.7739C11.1295 34.7739 10.9614 34.7229 10.8185 34.6273C10.6755 34.5318 10.5641 34.396 10.4983 34.2372C10.4325 34.0783 10.4153 33.9035 10.4488 33.7349C10.4823 33.5663 10.5651 33.4114 10.6867 33.2898C10.8083 33.1682 10.9632 33.0854 11.1318 33.0519C11.3005 33.0183 11.4753 33.0355 11.6341 33.1013C11.793 33.1671 11.9287 33.2786 12.0243 33.4215C12.1198 33.5645 12.1708 33.7326 12.1708 33.9045C12.1708 34.1351 12.0792 34.3562 11.9162 34.5192C11.7531 34.6823 11.532 34.7739 11.3014 34.7739ZM14.7788 34.7739C14.6069 34.7739 14.4388 34.7229 14.2958 34.6273C14.1529 34.5318 14.0414 34.396 13.9757 34.2372C13.9099 34.0783 13.8926 33.9035 13.9262 33.7349C13.9597 33.5663 14.0425 33.4114 14.1641 33.2898C14.2857 33.1682 14.4406 33.0854 14.6092 33.0519C14.7779 33.0183 14.9527 33.0355 15.1115 33.1013C15.2704 33.1671 15.4061 33.2786 15.5017 33.4215C15.5972 33.5645 15.6482 33.7326 15.6482 33.9045C15.6482 34.1351 15.5566 34.3562 15.3935 34.5192C15.2305 34.6823 15.0094 34.7739 14.7788 34.7739ZM7.82406 29.5578C7.59349 29.5578 7.37237 29.4662 7.20934 29.3032C7.0463 29.1401 6.95471 28.919 6.95471 28.6884C6.95471 28.5165 7.0057 28.3484 7.10122 28.2055C7.19675 28.0625 7.33252 27.9511 7.49137 27.8853C7.65023 27.8195 7.82502 27.8023 7.99366 27.8358C8.16229 27.8693 8.3172 27.9521 8.43878 28.0737C8.56036 28.1953 8.64315 28.3502 8.6767 28.5188C8.71024 28.6875 8.69303 28.8623 8.62723 29.0211C8.56143 29.18 8.45 29.3157 8.30704 29.4113C8.16408 29.5068 7.996 29.5578 7.82406 29.5578ZM11.3014 29.5578C11.1295 29.5578 10.9614 29.5068 10.8185 29.4113C10.6755 29.3157 10.5641 29.18 10.4983 29.0211C10.4325 28.8623 10.4153 28.6875 10.4488 28.5188C10.4823 28.3502 10.5651 28.1953 10.6867 28.0737C10.8083 27.9521 10.9632 27.8693 11.1318 27.8358C11.3005 27.8023 11.4753 27.8195 11.6341 27.8853C11.793 27.9511 11.9287 28.0625 12.0243 28.2055C12.1198 28.3484 12.1708 28.5165 12.1708 28.6884C12.1708 28.919 12.0792 29.1401 11.9162 29.3032C11.7531 29.4662 11.532 29.5578 11.3014 29.5578ZM14.1616 29.3057C14.0199 29.1633 13.9318 28.9763 13.9124 28.7764C13.8929 28.5765 13.9433 28.376 14.055 28.209C14.1666 28.0421 14.3327 27.9189 14.5248 27.8605C14.717 27.8021 14.9235 27.812 15.1092 27.8886C15.2281 27.9377 15.3347 28.0126 15.4212 28.1078C15.5077 28.2031 15.572 28.3164 15.6094 28.4395C15.6468 28.5626 15.6565 28.6925 15.6376 28.8198C15.6187 28.9471 15.5718 29.0686 15.5003 29.1755C15.4288 29.2825 15.3344 29.3722 15.224 29.4383C15.1135 29.5044 14.9898 29.5451 14.8618 29.5576C14.7337 29.57 14.6044 29.5539 14.4834 29.5103C14.3623 29.4667 14.2524 29.3969 14.1616 29.3057Z" fill="#3A3A3A"/>
</svg>

<svg width="40" height="40" fill="none" xmlns="http://www.w3.org/2000/svg"><path d="M39.99 2.608c0 37.069.07 35.052-.157 35.643a2.608 2.608 0 01-2.451 1.739H2.608A2.608 2.608 0 010 37.382V2.608A2.608 2.608 0 012.608 0h34.774a2.608 2.608 0 012.608 2.608z" fill="#719E35"/><path d="M39.99 2.608c0 37.069.07 35.052-.157 35.643H14.78a12.17 12.17 0 01-12.171-12.17C2.608-1.444 2.538.573 2.764 0h34.618a2.608 2.608 0 012.608 2.608z" fill="#8DC641"/><path d="M32.166 4.347H7.824a.87.87 0 00-.87.869v15.648c0 .48.39.87.87.87h24.342c.48 0 .87-.39.87-.87V5.216a.87.87 0 00-.87-.87z" fill="#C8C8C8"/><path d="M33.035 5.216v14.779h-7.824A15.692 15.692 0 019.563 4.347h22.603a.87.87 0 01.87.869z" fill="#D7D7D7"/><path d="M4.347 19.995H2.608a.87.87 0 010-1.739h1.739a.87.87 0 110 1.739zm0-3.477H2.608a.87.87 0 110-1.74h1.739a.87.87 0 010 1.74zm0-3.478H2.608a.87.87 0 110-1.738h1.739a.87.87 0 010 1.738zm0-3.477H2.608a.87.87 0 110-1.739h1.739a.87.87 0 010 1.739zm33.035 10.432h-1.739a.87.87 0 010-1.739h1.739a.87.87 0 010 1.739zm0-3.477h-1.739a.87.87 0 010-1.74h1.739a.87.87 0 010 1.74zm0-3.478h-1.739a.87.87 0 010-1.738h1.739a.87.87 0 010 1.738zm0-3.477h-1.739a.87.87 0 010-1.739h1.739a.87.87 0 010 1.739z" fill="#3A3A3A"/><path d="M21.734 26.08h3.477v3.478h-3.477V26.08zm10.432 0h3.477v3.478h-3.477V26.08z" fill="#719E35"/><path d="M4.347 26.08h13.91v10.433H4.346V26.08z" fill="#9A9A9A"/><path d="M18.256 26.08v8.694h-2.608a8.693 8.693 0 01-8.693-8.694h11.301z" fill="#CDCDCD"/><path d="M25.211 26.08h6.955v10.433H25.21V26.08z" fill="#2C435E"/><path d="M32.166 26.08c0 9.224-.087 8.694 0 8.694a4.348 4.348 0 01-4.347-4.347V26.08h4.347z" fill="#425B72"/><path d="M7.824 32.166a.87.87 0 110-1.74.87.87 0 010 1.74zm3.477 0a.869.869 0 11-.007-1.738.869.869 0 01.007 1.738zm3.478 0a.87.87 0 110-1.74.87.87 0 010 1.74zm-6.955 2.608a.87.87 0 11.01-1.74.87.87 0 01-.01 1.74zm3.477 0a.869.869 0 110-1.737.869.869 0 010 1.737zm3.478 0a.87.87 0 110-1.738.87.87 0 010 1.738zm-6.955-5.216a.87.87 0 110-1.74.87.87 0 010 1.74zm3.477 0a.87.87 0 110-1.739.87.87 0 010 1.739zm2.86-.252a.87.87 0 111.233-1.227.87.87 0 01-1.232 1.227z" fill="#3A3A3A"/></svg>
